packages/swarm-icons/src/icons/large/Share.svg

<svg xmlns="http://www.w3.org/2000/svg" width="28" height="28" viewBox="0 0 28 28">
  <path fill="#212121" d="M15,6.41421356 L15,17 C15,17.5522847 14.5522847,18 14,18 C13.4477153,18 13,17.5522847 13,17 L13,6.41421356 L10.7071068,8.70710678 C10.3165825,9.09763107 9.68341751,9.09763107 9.29289322,8.70710678 C8.90236893,8.31658249 8.90236893,7.68341751 9.29289322,7.29289322 L13.2928932,3.29289322 C13.6834175,2.90236893 14.3165825,2.90236893 14.7071068,3.29289322 L18.7071068,7.29289322 C19.0976311,7.68341751 19.0976311,8.31658249 18.7071068,8.70710678 C18.3165825,9.09763107 17.6834175,9.09763107 17.2928932,8.70710678 L15,6.41421356 Z M20,13 C19.4477153,13 19,12.5522847 19,12 C19,11.4477153 19.4477153,11 20,11 L20.5,11 C22.1568542,11 23.5,12.3431458 23.5,14 L23.5,22 C23.5,23.6568542 22.1568542,25 20.5,25 L7.5,25 C5.84314575,25 4.5,23.6568542 4.5,22 L4.5,14 C4.5,12.3431458 5.84314575,11 7.5,11 L8,11 C8.55228475,11 9,11.4477153 9,12 C9,12.5522847 8.55228475,13 8,13 L7.5,13 C6.94771525,13 6.5,13.4477153 6.5,14 L6.5,22 C6.5,22.5522847 6.94771525,23 7.5,23 L20.5,23 C21.0522847,23 21.5,22.5522847 21.5,22 L21.5,14 C21.5,13.4477153 21.0522847,13 20.5,13 L20,13 Z"/>
</svg>

<svg xmlns="http://www.w3.org/2000/svg" width="28" height="28"><path fill="#212121" d="M15 6.414V17a1 1 0 01-2 0V6.414l-2.293 2.293a1 1 0 01-1.414-1.414l4-4a1 1 0 011.414 0l4 4a1 1 0 11-1.414 1.414L15 6.414zM20 13a1 1 0 010-2h.5a3 3 0 013 3v8a3 3 0 01-3 3h-13a3 3 0 01-3-3v-8a3 3 0 013-3H8a1 1 0 010 2h-.5a1 1 0 00-1 1v8a1 1 0 001 1h13a1 1 0 001-1v-8a1 1 0 00-1-1H20z"/></svg>
